server/website/public/icons/base/fashion.svg

<svg width="48" height="48" viewBox="0 0 48 48" fill="none" xmlns="http://www.w3.org/2000/svg">
<path d="M17.2937 0L15.0971 1.10143C15.0971 4.56695 15.1837 10.6075 16.6012 15.2708C22.9094 16.8071 26.0906 16.8071 32.3988 15.2708C33.8379 10.6183 33.9029 5.90749 33.9137 1.10143L31.7063 0C31.2302 0.621044 30.4404 1.62727 29.3475 2.87476C28.5684 3.75764 27.7461 4.64485 26.9562 5.34163C26.5667 5.69002 26.188 5.9908 25.8093 6.22559C25.4197 6.46362 25.041 6.66919 24.5 6.66919C23.959 6.66919 23.5803 6.46362 23.1907 6.22559C22.812 5.9908 22.4333 5.69002 22.0438 5.34163C21.2539 4.64485 20.4316 3.75764 19.6525 2.87476C18.5596 1.62727 17.7698 0.621044 17.2937 0ZM16.3631 17.2075L3 43.9427C3.0303 44.0617 3.08656 44.1915 3.23372 44.3538C3.45013 44.6027 3.83749 44.9056 4.38176 45.1869C5.47245 45.7712 7.16475 46.3013 9.22169 46.7233C13.3334 47.5672 18.9275 48 24.5 48C30.0725 48 35.6666 47.5672 39.7783 46.7233C41.8342 46.3013 43.533 45.7712 44.615 45.1869C45.1668 44.9056 45.5455 44.6027 45.762 44.3538C45.9134 44.1915 45.9675 44.0617 46 43.9427L32.6369 17.2075C26.3611 18.7114 22.6389 18.7114 16.3631 17.2075Z" fill="black"/>
</svg>

<svg width="48" height="48" fill="none" xmlns="http://www.w3.org/2000/svg"><path d="M17.294 0l-2.197 1.101c0 3.466.087 9.506 1.504 14.17 6.308 1.536 9.49 1.536 15.798 0 1.439-4.653 1.504-9.364 1.515-14.17L31.706 0a56.214 56.214 0 01-2.358 2.875c-.78.883-1.602 1.77-2.392 2.467-.39.348-.768.649-1.147.884-.39.238-.768.443-1.309.443-.541 0-.92-.205-1.31-.443a8.384 8.384 0 01-1.146-.884c-.79-.697-1.612-1.584-2.392-2.467A56.214 56.214 0 0117.294 0zm-.93 17.207L3 43.944c.03.119.087.248.234.41.216.25.603.553 1.148.834 1.09.584 2.783 1.114 4.84 1.536C13.333 47.567 18.927 48 24.5 48s11.167-.433 15.278-1.277c2.056-.422 3.755-.952 4.837-1.536.552-.281.93-.584 1.147-.833a.92.92 0 00.238-.411L32.637 17.208c-6.276 1.503-9.998 1.503-16.274 0z" fill="#000"/></svg>
